F[ERK1
CUT[ES WOLLT EIN MAEDL WOL FRUEH AUFSTEHN]
REG[Europa, Mitteleuropa, Oesterreich]
KEY[E0121  16  G 2/4]
MEL[-5_  1_1_1231  2_-7_-5_
    -5_  1_1_2_5_  3__0_
    12  3_1_3_1_  4_3_2__
    -7_2_-5_4_  3_2_1_
    -5_  3_3_2_2_  1__0_ //] >>
FCT[erzaehlendes Volks - Lied, Schalk -, Schelmen - Lied, Liebe
    Ballade ?]
